!!!SOCIAL_FUNCTION:	miscellaneous songs
!!!PDT:	1956
!!!OTL: No_241_Song_of_Friendship_(b).krn
!!!LANG: Non-Tone
!!!LING_GROUP: Muskogean
!!!REG: Florida
**kern
*staff1
=1-
*clefF4
*k[f#]
*M2/4
8.r
16A\
8.A\L
16G\Jk
=2!|:
2A\
=3
16A\LK
8.G\J
16E/LK
8.C/J
=4
8D\L
16D\L
16D\JJ
8D\
8r
=5
8D\L
8D\J
4D\
=6||
*M3/4
8A\L
16A\L
16G\JJ
16E\LL
16D\J
8BB\J
8r
8E\
=7||
*M3/8
4D\
16D\LL
16D\JJ
=8
8D\
8r
8D\
=9||
*M3/4
4.D\
16r
16A\
8.A\L
16G\Jk
=10:|!
*M3/8
8D\L
8D\J
8r
==
*-
